X: 28166
T: Mrs Martha Knowles
R: reel
M: 4/4
K: Adorian
|:"Am"A2e2 d>ee>d|"C"e2d>e "G"g>dd>e|"Am"A/A/A B>G A2B>d|"G"e2B<g "Am"A>AA>e:|
|:"Am"A>aa>g a>ee<a|"C"g2e<g "G"d2e<g|"Em"B>GG>A B2A>B|"G"e>dB<g "Am"A>AA>e:|
|:"Am"A>ee>d e>AA<e|"G"d<gB<d "Em"G>dd>e|"Am"A/A/A B>G A2B>d|"G"e2B<g "Am"A>AA>e:|
|:"Am"a>ee>a e2a(e|e)>ae>a "G"g>ed>B|"F"A2 B>G A2B>d|"Em"e2B<g "Am"A>AA>e:|

